T: Hwylie
M: 3/4
L: 1/8
K: Dmin
a2 a>b a>g | (3fgf d2 a>f (3gag B2 B>c | e>d A2 (3def |a2 a>b a>g | f2 d2 a>f | g2 B2 B>c |1 d3 :|2 d4 ||c>e g>e c>e | d>f A2 (3fed | c>e A>g f>e | d>A F>A D2 |c>e (3gfe c>e | d>F A>d e>d |1 c>A g>A e>A | d2 D2 :|2 ^c>a ^g>a =g>c | d3 ||
